docroot/themes/custom/gearwrench/logo.svg

<svg viewBox="0 0 314 28" fill="none" xmlns="http://www.w3.org/2000/svg">
<path fill-rule="evenodd" clip-rule="evenodd" d="M88.4211 28H106.105V21.5777H95.6764V17.514H105.291V11.0918H95.6764V7.89453H106.105V1.47369H88.4211V28Z" fill="#FFFFFE"/>
<path fill-rule="evenodd" clip-rule="evenodd" d="M122.054 16.9782H118.084L120.082 9.81133L122.054 16.9782ZM115.75 1.47369L107.579 28H115.023L116.396 23.0969H123.815L125.186 28H132.631L124.421 1.47369H115.75Z" fill="#FFFFFE"/>
<path fill-rule="evenodd" clip-rule="evenodd" d="M182.396 17.0915L178.675 1.47369H170.706L166.909 17.13L163.211 1.47369H156.21L162.71 28H170.987L174.667 11.4452L178.312 28H186.591L193.053 1.47369H186.054L182.396 17.0915Z" fill="#EB8900"/>
<path fill-rule="evenodd" clip-rule="evenodd" d="M219.579 28H237.263V21.5777H226.836V17.514H236.449V11.0918H226.836V7.89453H237.263V1.47369H219.579V28Z" fill="#EB8900"/>
<path fill-rule="evenodd" clip-rule="evenodd" d="M256.958 16.3861L249.809 1.47369H241.684V28H248.517V13.761L255.635 28H263.789V1.47369H256.958V16.3861Z" fill="#EB8900"/>
<path fill-rule="evenodd" clip-rule="evenodd" d="M301.005 1.47369V11.4709H294.364V1.47369H287.368V28H294.364V17.8888H301.005V28H308V1.47369H301.005Z" fill="#EB8900"/>
<path fill-rule="evenodd" clip-rule="evenodd" d="M74.3265 8.00925V7.98432H85.4736V1.47369H74.3265C68.3861 1.5136 64.842 4.64172 64.842 9.86546V19.6033C64.842 24.8612 68.4296 28 74.4369 28C74.5018 28 74.5681 27.9993 74.6364 27.9979V28H85.4736V11.5564H75.682V17.1656H79.4656V21.4986H74.6364V21.5036C74.5681 21.5036 74.4984 21.5043 74.4369 21.5043C72.4803 21.5043 71.6824 20.6692 71.6824 18.6235V10.7355C71.6824 9.12512 72.14 8.04631 74.3265 8.00925Z" fill="#FFFFFE"/>
<path fill-rule="evenodd" clip-rule="evenodd" d="M275.232 8.00925V7.98432H284.421V1.47369H275.232C268.989 1.5136 265.263 4.64172 265.263 9.86546V19.6033C265.263 24.8612 269.034 28 275.349 28C275.418 28 275.487 27.9993 275.557 27.9979V28H284.421V21.4986H275.557V21.5036C275.487 21.5036 275.413 21.5043 275.349 21.5043C273.292 21.5043 272.453 20.6692 272.453 18.6235V10.7355C272.453 9.12512 272.933 8.04631 275.232 8.00925Z" fill="#EB8900"/>
<path fill-rule="evenodd" clip-rule="evenodd" d="M206.803 7.97507V7.97008C206.87 7.97008 206.941 7.96937 207.002 7.96937C208.976 7.96937 209.784 8.79736 209.791 10.821C209.791 10.8075 209.793 10.7954 209.793 10.7818V10.8502C209.793 10.8403 209.791 10.8317 209.791 10.821C209.784 12.4093 209.314 13.471 207.114 13.5081V13.5323H202.907V7.97507H206.803ZM211.969 19.1472C215.012 17.866 216.725 15.2588 216.725 11.6518V9.87045C216.725 4.6125 213.09 1.47369 207.002 1.47369C206.936 1.47369 206.869 1.47512 206.803 1.47583V1.47369H196V28H202.907V18.0278L209.818 28H218.105L211.969 19.1472Z" fill="#EB8900"/>
<mask id="mask0" mask-type="alpha" maskUnits="userSpaceOnUse" x="0" y="0" width="158" height="28">
<path fill-rule="evenodd" clip-rule="evenodd" d="M0 0H157.684V28H0V0Z" fill="white"/>
</mask>
<g mask="url(#mask0)">
<path fill-rule="evenodd" clip-rule="evenodd" d="M146.1 7.21228V7.20727C146.169 7.20727 146.243 7.20656 146.306 7.20656C148.328 7.20656 149.159 8.03772 149.166 10.0691C149.166 10.0556 149.167 10.0434 149.167 10.0298V10.0985C149.167 10.0885 149.166 10.0799 149.166 10.0691C149.159 11.6635 148.675 12.7293 146.421 12.7665V12.7908H142.11V7.21228H146.1ZM151.396 18.4273C154.515 17.1412 156.272 14.524 156.272 10.9032V9.11494C156.272 3.83682 152.546 0.685974 146.306 0.685974C146.238 0.685974 146.169 0.687405 146.1 0.68812V0.685974H135.03V27.314H142.11V17.3036L143.541 19.3278L149.193 27.314H157.684L151.396 18.4273Z" fill="#FFFFFE"/>
<path fill-rule="evenodd" clip-rule="evenodd" d="M0.293546 15.7428C-0.478554 18.9351 0.0892301 21.9508 1.8908 24.2333C3.24646 25.9514 5.88465 28 10.751 28H39.2757C44.6345 27.9793 48.5667 24.8742 50.0664 19.4788L50.0908 19.3858L54.7729 0H14.6323C9.04832 0.037195 4.50533 2.83326 2.47149 7.49766C2.11447 8.33097 1.908 9.07058 1.8313 9.37243L0.293546 15.7428Z" fill="#EB8900"/>
</g>
<path fill-rule="evenodd" clip-rule="evenodd" d="M42.8232 5.89474L40.0249 17.2186C39.9215 17.6718 39.5125 18.0114 39.0203 18.0219H37.0055L40.0026 5.89474H35.6587L32.8969 17.0671C32.7821 17.5161 32.3379 18.0114 31.8543 18.0219H29.8445L32.8409 5.89474H14.3228C11.0063 5.91579 8.46767 7.53439 7.36841 10.0047H27.4673L24.4823 22.1053H38.9292C40.4231 22.0997 43.0765 21.8534 44.2045 17.8718L47.1579 5.89474H42.8232Z" fill="#030001"/>
<path fill-rule="evenodd" clip-rule="evenodd" d="M13.9879 13.4922L13.3417 16.0125H19.7746L19.4233 17.3683C19.3187 17.8171 18.8883 18.1538 18.3731 18.1538L12.0785 18.1409C10.8044 18.1409 10.4114 17.6528 10.7224 16.4551L11.9446 11.7895H7.48326L6.07738 17.1931C5.27748 20.2694 7.13636 22.1052 11.0481 22.1052C11.0898 22.1052 11.133 22.1052 11.1769 22.1052H22.6171L25.0527 12.7128H14.9781C14.4921 12.7373 14.0904 13.0625 13.9879 13.4922Z" fill="#030001"/>
<path fill-rule="evenodd" clip-rule="evenodd" d="M311.701 1.36262H311.245V2.1198H311.701C311.973 2.1198 312.124 2.01381 312.124 1.75687V1.7111C312.124 1.46861 311.973 1.36262 311.701 1.36262ZM312.199 2.498L312.654 3.51293H312.108L311.701 2.55822H311.245V3.51293H310.715V0.908154H311.806C312.29 0.908154 312.654 1.1651 312.654 1.68059V1.78658C312.654 2.16477 312.471 2.39201 312.199 2.498ZM311.685 4.05733C312.699 4.05733 313.531 3.22466 313.531 2.21054C313.531 1.19561 312.699 0.362944 311.685 0.362944C310.672 0.362944 309.837 1.19561 309.837 2.21054C309.837 3.22466 310.672 4.05733 311.685 4.05733ZM311.685 0C312.895 0 313.895 0.998872 313.895 2.21053C313.895 3.42138 312.895 4.42105 311.685 4.42105C310.473 4.42105 309.474 3.42138 309.474 2.21053C309.474 0.998872 310.473 0 311.685 0Z" fill="#EB8900"/>
</svg>

<svg version="1.1" id="Layer_1" xmlns="http://www.w3.org/2000/svg" xmlns:xlink="http://www.w3.org/1999/xlink" x="0px" y="0px"
	 viewBox="0 0 314 28" enable-background="new 0 0 314 28" xml:space="preserve">
<path fill-rule="evenodd" clip-rule="evenodd" fill="#FFFFFE" d="M88.421,28h17.684v-6.422H95.677v-4.064h9.613v-6.422h-9.613V7.895
	h10.428V1.474H88.421V28z"/>
<path fill-rule="evenodd" clip-rule="evenodd" fill="#FFFFFE" d="M122.054,16.978h-3.97l1.999-7.167L122.054,16.978z M115.75,1.474
	L107.579,28h7.444l1.374-4.903h7.418L125.187,28h7.444l-8.21-26.526H115.75z"/>
<path fill-rule="evenodd" clip-rule="evenodd" fill="#1D201F" d="M182.396,17.091l-3.721-15.618h-7.969l-3.797,15.656L163.21,1.474
	h-7L162.71,28h8.277l3.681-16.555L178.312,28h8.279l6.462-26.526h-7L182.396,17.091z"/>
<path fill-rule="evenodd" clip-rule="evenodd" fill="#1D201F" d="M219.579,28h17.684v-6.422h-10.427v-4.064h9.613v-6.422h-9.613
	V7.895h10.427V1.474h-17.684V28z"/>
<path fill-rule="evenodd" clip-rule="evenodd" fill="#1D201F" d="M256.958,16.386l-7.149-14.912h-8.125V28h6.833V13.761L255.636,28
	h8.153V1.474h-6.831V16.386z"/>
<path fill-rule="evenodd" clip-rule="evenodd" fill="#1D201F" d="M301.005,1.474v9.997h-6.641V1.474h-6.996V28h6.996V17.889h6.641
	V28H308V1.474H301.005z"/>
<path fill-rule="evenodd" clip-rule="evenodd" fill="#FFFFFE" d="M74.325,8.009V7.984h11.148V1.474H74.325
	c-5.94,0.04-9.483,3.168-9.483,8.392v9.738c0,5.258,3.587,8.397,9.595,8.397c0.065,0,0.131-0.001,0.199-0.002V28h10.838V11.556
	h-9.792v5.609h3.783v4.333h-4.829v0.005c-0.068,0-0.138,0.001-0.199,0.001c-1.957,0-2.755-0.835-2.755-2.881v-7.888
	C71.682,9.125,72.139,8.046,74.325,8.009z"/>
<path fill-rule="evenodd" clip-rule="evenodd" fill="#1D201F" d="M275.233,8.009V7.984h9.188V1.474h-9.188
	c-6.244,0.04-9.97,3.168-9.97,8.392v9.738c0,5.258,3.771,8.397,10.086,8.397c0.068,0,0.138-0.001,0.207-0.002V28h8.865v-6.501
	h-8.865v0.005c-0.069,0-0.142,0.001-0.207,0.001c-2.057,0-2.895-0.835-2.895-2.881v-7.888
	C272.454,9.125,272.934,8.046,275.233,8.009z"/>
<path fill-rule="evenodd" clip-rule="evenodd" fill="#1D201F" d="M206.802,7.975V7.97c0.068,0,0.139-0.001,0.2-0.001
	c1.974,0,2.783,0.828,2.79,2.852c0-0.014,0.001-0.026,0.001-0.039v0.068c0-0.01-0.001-0.018-0.001-0.029
	c-0.007,1.588-0.479,2.65-2.678,2.687v0.024h-4.206V7.975H206.802z M211.969,19.147c3.042-1.281,4.757-3.888,4.757-7.495V9.87
	c0-5.258-3.637-8.397-9.724-8.397c-0.066,0-0.133,0.001-0.2,0.002V1.474H196V28h6.907v-9.972l1.397,2.017L209.818,28h8.287
	L211.969,19.147z"/>
<path fill-rule="evenodd" clip-rule="evenodd" fill="#FFFFFE" d="M146.099,7.212V7.207c0.069,0,0.143-0.001,0.206-0.001
	c2.022,0,2.853,0.831,2.861,2.863c0-0.014,0.001-0.026,0.001-0.039v0.069c0-0.01-0.001-0.019-0.001-0.029
	c-0.008,1.594-0.492,2.66-2.745,2.697v0.024h-4.312V7.212H146.099z M151.396,18.427c3.119-1.286,4.875-3.903,4.875-7.524V9.115
	c0-5.278-3.726-8.429-9.966-8.429c-0.067,0-0.137,0.001-0.206,0.002V0.686h-11.071v26.628h7.081v-10.01l1.431,2.024l5.653,7.986
	h8.491L151.396,18.427z"/>
<path fill-rule="evenodd" clip-rule="evenodd" fill="#1D201F" d="M0.294,15.743c-0.773,3.192-0.206,6.208,1.596,8.49
	C3.246,25.951,5.885,28,10.751,28h28.525c5.358-0.021,9.291-3.126,10.789-8.521l0.025-0.093L54.773,0h-40.14
	C9.049,0.037,4.506,2.833,2.472,7.498C2.115,8.331,1.909,9.071,1.83,9.372L0.294,15.743z"/>
<path fill-rule="evenodd" clip-rule="evenodd" fill="#EB8900" d="M42.822,5.895l-2.798,11.324c-0.103,0.453-0.512,0.793-1.005,0.803
	h-2.014l2.996-12.127h-4.343l-2.761,11.172c-0.116,0.449-0.56,0.944-1.043,0.955h-2.01l2.997-12.127H14.322
	c-3.316,0.021-5.855,1.64-6.954,4.11h20.098l-2.985,12.101h14.447c1.494-0.006,4.147-0.252,5.276-4.233l2.953-11.977H42.822z"/>
<path fill-rule="evenodd" clip-rule="evenodd" fill="#EB8900" d="M13.792,12.809l-0.632,2.72h6.277l-0.343,1.463
	c-0.102,0.484-0.522,0.848-1.025,0.848l-6.142-0.014c-1.244,0-1.627-0.527-1.323-1.819l1.193-5.036H7.445l-1.372,5.832
	c-0.78,3.32,1.033,5.302,4.85,5.302c0.041,0,0.083,0,0.126,0h11.163l2.376-10.137h-9.83C14.283,11.994,13.891,12.345,13.792,12.809z
	"/>
<path fill-rule="evenodd" clip-rule="evenodd" fill="#1D201F" d="M311.943,1.244h-0.405v0.691h0.405
	c0.242,0,0.377-0.097,0.377-0.331V1.562C312.32,1.34,312.185,1.244,311.943,1.244z M312.387,2.28l0.404,0.926h-0.486l-0.362-0.871
	h-0.405v0.871h-0.471V0.829h0.969c0.432,0,0.755,0.234,0.755,0.705V1.63C312.791,1.976,312.629,2.183,312.387,2.28z M311.929,3.703
	c0.901,0,1.641-0.76,1.641-1.685c0-0.926-0.74-1.686-1.641-1.686c-0.901,0-1.643,0.76-1.643,1.686
	C310.286,2.943,311.028,3.703,311.929,3.703z M311.929,0c1.077,0,1.966,0.912,1.966,2.017c0,1.105-0.889,2.017-1.966,2.017
	c-1.077,0-1.966-0.912-1.966-2.017C309.963,0.912,310.852,0,311.929,0z"/>
</svg>
